public/images/hashed/7e5bc134b5e5ac0e26c16c64222801b7.svg

<?xml version="1.0" encoding="UTF-8"?>
<svg width="80px" height="80px" viewBox="0 0 80 80" version="1.1" xmlns="http://www.w3.org/2000/svg" xmlns:xlink="http://www.w3.org/1999/xlink">
    <!-- Generator: Sketch 64 (93537) - https://sketch.com -->
    <title>Icon-Architecture/64/Arch_Amazon-Comprehend_64</title>
    <desc>Created with Sketch.</desc>
    <defs>
        <linearGradient x1="0%" y1="100%" x2="100%" y2="0%" id="linearGradient-1">
            <stop stop-color="#055F4E" offset="0%"></stop>
            <stop stop-color="#56C0A7" offset="100%"></stop>
        </linearGradient>
    </defs>
    <g id="Icon-Architecture/64/Arch_Amazon-Comprehend_64" stroke="none" stroke-width="1" fill="none" fill-rule="evenodd">
        <g id="Icon-Architecture-BG/64/Machine-Learning" fill="url(#linearGradient-1)">
            <rect id="Rectangle" x="0" y="0" width="80" height="80"></rect>
        </g>
        <path d="M16.9999653,54 L32.9998542,54 L32.9998542,52 L16.9999653,52 L16.9999653,54 Z M33.9998473,47 L42.9997848,47 L42.9997848,45 L33.9998473,45 L33.9998473,47 Z M16.9999653,47 L31.9998612,47 L31.9998612,45 L16.9999653,45 L16.9999653,47 Z M16.9999653,26 L29.999875,26 L29.999875,24 L16.9999653,24 L16.9999653,26 Z M63.0106459,54.079 C62.8976467,54.156 62.7526477,54.218 62.6036487,54.287 C62.0756524,54.534 61.3526574,54.873 61.0616594,55.651 C61.0206597,55.763 60.9996598,55.881 60.9996598,56 L60.9996598,60 L58.9996737,60 L58.9996737,51 L61.9996529,51 L61.9996529,49 L53.9997084,49 L53.9997084,51 L56.9996876,51 L56.9996876,60 L54.9997015,60 L54.9997015,56 C54.9997015,55.881 54.9787016,55.763 54.9367019,55.651 C54.6467039,54.873 53.923709,54.534 53.3957126,54.287 C53.2467137,54.218 53.1017147,54.156 52.9887154,54.079 C50.024736,52.024 48.5437463,48.505 49.1247423,44.896 C49.7727378,40.863 53.2057139,37.621 57.2866856,37.188 C57.4956842,37.165 58.5076771,37.166 58.7126757,37.188 C62.7936474,37.621 66.2266235,40.863 66.874619,44.896 C67.455615,48.505 65.9746253,52.024 63.0106459,54.079 L63.0106459,54.079 Z M68.8496053,44.579 C68.0606108,39.67 63.8856398,35.726 58.9226742,35.198 C58.5766766,35.162 57.4206847,35.162 57.0766871,35.198 L57.0756871,35.198 C52.1137215,35.726 47.9387505,39.67 47.149756,44.579 C46.4457609,48.955 48.2467484,53.225 51.8507233,55.722 C52.045722,55.857 52.2907203,55.979 52.5477185,56.099 C52.6847176,56.163 52.8937161,56.26 52.9997154,56.314 L52.9997154,61 C52.9997154,61.552 53.4467123,62 53.9997084,62 L61.9996529,62 C62.552649,62 62.9996459,61.552 62.9996459,61 L62.9996459,56.33 C63.1206451,56.253 63.3196437,56.161 63.4516428,56.099 C63.708641,55.979 63.9536393,55.857 64.148638,55.722 C67.7526129,53.225 69.5536004,48.955 68.8496053,44.579 L68.8496053,44.579 Z M59.4646705,66 L56.5346908,66 L55.8676955,65 L60.1316659,65 L59.4646705,66 Z M61.9996529,63 L53.9997084,63 C53.630711,63 53.2917133,63.203 53.1177145,63.528 C52.9437158,63.854 52.9637156,64.248 53.1677142,64.555 L55.1677003,67.555 C55.353699,67.833 55.6656969,68 55.9996945,68 L59.9996668,68 C60.3336645,68 60.6456623,67.833 60.831661,67.555 L62.8316471,64.555 C63.0356457,64.248 63.0556456,63.854 62.8816468,63.528 C62.707648,63.203 62.3686503,63 61.9996529,63 L61.9996529,63 Z M16.9999653,40 L42.9997848,40 L42.9997848,38 L16.9999653,38 L16.9999653,40 Z M25.9999028,33 L42.9997848,33 L42.9997848,31 L25.9999028,31 L25.9999028,33 Z M16.9999653,33 L23.9999167,33 L23.9999167,31 L16.9999653,31 L16.9999653,33 Z M35.9998334,15.414 L44.5857738,24 L35.9998334,24 L35.9998334,15.414 Z M45.999764,61 L13.9999861,61 L13.9999861,14.005 L33.9998473,14 L33.9998473,25 C33.9998473,25.552 34.4468442,26 34.9998403,26 L45.999764,26 L45.999764,38 L47.9997501,38 L47.9997501,25 L47.9907501,25 C47.9897501,24.74 47.8977508,24.484 47.7067521,24.293 L35.7068354,12.293 C35.5168367,12.102 35.2608385,12.01 34.9998403,12.01 L34.9998403,12 L13,12.005 C12.4469969,12.005 12,12.453 12,13.005 L12,62 C12,62.552 12.4469969,63 13,63 L46.999757,63 C47.5527532,63 47.9997501,62.552 47.9997501,62 L47.9997501,56 L45.999764,56 L45.999764,61 Z" id="Amazon-Comprehend_Icon_64_Squid" fill="#FFFFFF"></path>
    </g>
</svg>

<svg xmlns="http://www.w3.org/2000/svg" width="80" height="80"><defs><linearGradient id="a" x1="0%" x2="100%" y1="100%" y2="0%"><stop offset="0%" stop-color="#055F4E"/><stop offset="100%" stop-color="#56C0A7"/></linearGradient></defs><g fill="none" fill-rule="evenodd"><path fill="url(#a)" d="M0 0h80v80H0z"/><path fill="#FFF" d="M17 54h16v-2H17v2Zm17-7h9v-2h-9v2Zm-17 0h15v-2H17v2Zm0-21h13v-2H17v2Zm46.01 28.079c-.112.077-.257.139-.406.208-.528.247-1.251.586-1.542 1.364-.041.112-.062.23-.062.349v4h-2v-9h3v-2h-8v2h3v9h-2v-4a.993.993 0 0 0-.063-.349c-.29-.778-1.013-1.117-1.541-1.364-.15-.069-.294-.131-.407-.208-2.964-2.055-4.445-5.574-3.864-9.183.648-4.033 4.08-7.275 8.162-7.708a15.07 15.07 0 0 1 1.426 0c4.08.433 7.514 3.675 8.162 7.708.58 3.609-.9 7.128-3.864 9.183Zm5.84-9.5c-.79-4.909-4.964-8.853-9.927-9.381a15.79 15.79 0 0 0-1.846 0h-.001c-4.962.528-9.137 4.472-9.926 9.381-.704 4.376 1.097 8.646 4.7 11.143.196.135.44.257.698.377.137.064.346.161.452.215V61a1 1 0 0 0 1 1h8a1 1 0 0 0 1-1v-4.67c.12-.077.32-.169.452-.231.257-.12.502-.242.697-.377 3.604-2.497 5.405-6.767 4.7-11.143ZM59.465 66h-2.93l-.667-1h4.264l-.667 1ZM62 63h-8a1 1 0 0 0-.832 1.555l2 3c.186.278.498.445.832.445h4c.334 0 .646-.167.832-.445l2-3A1.002 1.002 0 0 0 62 63ZM17 40h26v-2H17v2Zm9-7h17v-2H26v2Zm-9 0h7v-2h-7v2Zm19-17.586L44.586 24H36v-8.586ZM46 61H14V14.005L34 14v11a1 1 0 0 0 1 1h11v12h2V25h-.01a.996.996 0 0 0-.283-.707l-12-12A.987.987 0 0 0 35 12.01V12l-22 .005a1 1 0 0 0-1 1V62a1 1 0 0 0 1 1h34a1 1 0 0 0 1-1v-6h-2v5Z"/></g></svg>
